X:170
T:Alasdrum's March
O:England
M:12/8
L:1/8
S:Martin Hayes
K:G
B>A A B>G G|B>A g g>e d|B>A A B>G G|B>A g e2 d:|
g2 b a2 b|g>a g g/2e/2 dB|g2 b a2 b|g>a g g/2e/2 dB:|
e2 d e2 B|e2 d e2 B|e>g e f2 B|e>g e f2 B|
e2 d e2 B|e2 d e2 B|e>g e f2 B|e>g f e2 d||
B>g g b>a a|b>g g g>e d|B>g g b>a a|b>g g e2 d:|


